public/piece/monarchy/bP.svg

<?xml version="1.0" encoding="UTF-8" standalone="no"?>
<svg
   width="640pt"
   height="640pt"
   viewBox="0 0 640 640"
   version="1.1"
   id="svg13"
   sodipodi:docname="bp.svg"
   inkscape:version="1.3.2 (091e20e, 2023-11-25, custom)"
   xmlns:inkscape="http://www.inkscape.org/namespaces/inkscape"
   xmlns:sodipodi="http://sodipodi.sourceforge.net/DTD/sodipodi-0.dtd"
   xmlns="http://www.w3.org/2000/svg"
   xmlns:svg="http://www.w3.org/2000/svg">
  <defs
     id="defs13" />
  <sodipodi:namedview
     id="namedview13"
     pagecolor="#ffffff"
     bordercolor="#000000"
     borderopacity="0.25"
     inkscape:showpageshadow="2"
     inkscape:pageopacity="0.0"
     inkscape:pagecheckerboard="0"
     inkscape:deskcolor="#d1d1d1"
     inkscape:document-units="pt"
     inkscape:zoom="0.47854004"
     inkscape:cx="-333.30544"
     inkscape:cy="412.71364"
     inkscape:window-width="2560"
     inkscape:window-height="1351"
     inkscape:window-x="1341"
     inkscape:window-y="712"
     inkscape:window-maximized="1"
     inkscape:current-layer="svg13" />
  <path
     fill="#4f5454"
     stroke="#4f5454"
     stroke-width="0.09375"
     opacity="1"
     d="m 321.05044,124.14002 c 22.42193,-2.09549 63.44192,18.58665 72.61411,46.9636 3.91349,13.29902 12.3187,35.96866 6.48365,48.09853 -0.009,23.34835 -6.94728,48.21024 -29.85154,59.0399 -14.10808,5.88872 -54.13342,5.503 -69.08107,6.06655 -21.75331,-0.61165 -56.23219,-11.00032 -63.45899,-34.17788 -6.49428,-25.33835 -11.20711,-102.87316 17.1561,-97.64433 11.76926,-19.95575 44.89281,-33.19459 66.13774,-28.34637 z"
     id="path3"
     sodipodi:nodetypes="cccccccc" />
  <path
     fill="#4f5454"
     stroke="#4f5454"
     stroke-width="0.09375"
     opacity="1"
     d="m 291.45377,284.87095 c 19.93208,1.64002 48.59249,-3.84959 54.67593,3.75173 19.93023,-9.3752 9.75661,1.27704 19.9498,3.27227 15.98021,5.78461 46.41629,30.51414 62.00949,37.45667 -9.54183,6.22522 -10.52635,12.24739 -22.65308,11.95888 -10.28082,-1.24617 -41.98017,-6.1263 -50.27422,1.41978 -10.62387,6.10466 -8.97435,-1.12523 -20.20457,3.80996 -4.77486,-2.29602 -4.74183,4.81857 -2.69886,1.46164 4.95157,-3.71333 -104.9705,-11.36696 -118.10908,-12.16644 -28.81716,-3.26619 4.4767,-8.99773 1.2332,-11.89453 13.92922,-7.37965 48.23467,-23.70634 52.90397,-39.98133 z"
     id="path7"
     sodipodi:nodetypes="cccccccccccc" />
  <path
     fill="#4f5454"
     stroke="#4f5454"
     stroke-width="0.09375"
     opacity="1"
     d="m 205.02641,504.11276 c 9.08,0.23 12.05684,-7.17996 39.76814,4.95045 5.41964,-4.44907 54.21502,-0.25136 84.55502,-0.0814 14.97,-0.24 33.69226,1.14545 48.65226,0.14545 16.26,-0.68 37.58362,-2.27591 53.84362,-3.09591 10.11346,1.37095 23.56372,2.31078 22.42372,12.01078 -0.72,4.95 7.34465,42.39734 3.36465,43.20734 -23.28,3.67 -111.86006,3.18226 -135.33006,4.72226 -34.69,1.61 -38.79829,6.68862 -68.9724,-0.73907 -1.92,0.19 -5.34727,2.81499 -7.22727,3.21499 -20.11,0.28 -48.50815,-3.46499 -68.44815,-6.10499 1.23,-0.07 -18.6881,0.0359 -1.58953,-3.79635 -14.99129,4.95904 -5.25496,-23.26681 0.88504,-32.09681 4.08,-5.86 21.85496,-19.46678 28.07496,-22.33678 z"
     id="path12"
     sodipodi:nodetypes="cccccccccccccc" />
  <path
     fill="#4f5454"
     stroke="#4f5454"
     stroke-width="0.09375"
     opacity="1"
     d="m 282.22365,349.0891 c -10.09278,-5.35491 51.9617,-4.51289 72.20971,-4.26498 -5.66697,2.34226 2.23504,17.72059 1.00181,23.24782 -1.2416,25.40255 2.2987,35.62191 12.03623,59.50888 6.16614,15.67453 28.1133,30.12561 32.92717,46.32747 10.16741,4.3934 13.31468,24.5335 17.77261,31.54637 -6.07797,1.74747 -40.17252,0.7421 -46.85148,0.22926 -21.90713,1.10243 -41.10896,1.9781 -65.31824,4.9699 -13.54057,0.58318 -27.63618,-3.84894 -41.03407,-2.33668 -6.77742,-1.57302 -46.92008,-2.33089 -48.30335,-10.95094 2.46527,-10.49662 13.1324,-26.0217 20.42058,-32.40787 14.60365,-10.9408 24.61554,-15.67768 28.75367,-33.44209 7.10283,-25.35656 9.24896,-35.32573 11.96951,-61.38583 3.65644,-0.45834 7.49232,-11.98307 0.1256,-11.71957 -5.22807,-0.23297 -6.74487,-11.15677 4.29025,-9.32174 z"
     id="path8"
     sodipodi:nodetypes="ccccccccccccccc" />
  <path
     fill="#707575"
     stroke="#707575"
     stroke-width="0.09375"
     opacity="1.00"
     d=" M 248.61 167.54 C 263.24 144.11 290.03 128.69 317.72 128.45 C 301.30 140.51 283.72 151.62 270.70 167.58 C 260.56 179.76 254.03 195.07 253.23 210.97 C 252.17 227.55 256.97 243.79 262.79 259.12 C 264.41 263.66 266.83 267.95 267.67 272.74 C 261.28 269.26 257.24 262.81 252.70 257.34 C 243.23 242.65 235.91 225.79 235.78 208.05 C 236.37 193.73 240.96 179.64 248.61 167.54 Z"
     id="path2" />
  <path
     fill="#414444"
     stroke="#414444"
     stroke-width="0.09375"
     opacity="1.00"
     d=" M 371.80 152.64 C 378.82 158.28 383.77 166.14 388.05 173.97 C 395.09 188.02 399.21 204.31 396.04 219.97 C 394.80 227.03 392.58 233.91 389.48 240.37 C 386.02 247.65 382.68 255.22 377.10 261.16 C 382.33 242.20 388.84 222.87 386.85 202.92 C 385.23 188.20 380.19 174.11 374.42 160.56 C 373.35 157.99 372.61 155.30 371.80 152.64 Z"
     id="path4" />
  <path
     fill="#707575"
     stroke="#707575"
     stroke-width="0.09375"
     opacity="1.00"
     d=" M 274.45 290.92 C 278.03 291.51 281.62 292.00 285.22 292.49 C 282.73 299.58 279.41 306.63 273.72 311.73 C 266.78 317.92 258.55 322.42 250.43 326.85 C 276.87 329.50 303.47 330.01 329.89 332.94 C 334.45 333.67 339.58 332.95 343.49 335.89 C 330.67 336.34 317.83 335.97 305.00 336.09 C 285.67 336.11 266.33 336.27 247.03 335.11 C 236.35 334.99 225.63 334.14 215.21 331.70 C 225.13 325.29 236.20 321.01 246.81 315.91 C 252.81 312.99 259.38 310.90 264.49 306.45 C 269.31 302.46 273.07 297.07 274.45 290.92 Z"
     id="path5" />
  <path
     fill="#414444"
     stroke="#414444"
     stroke-width="0.09375"
     opacity="1.00"
     d=" M 345.16 292.64 C 349.64 292.29 354.09 291.65 358.54 291.01 C 360.45 298.98 366.14 305.66 373.05 309.84 C 381.46 313.92 390.02 317.69 398.54 321.55 C 404.89 324.85 411.69 327.41 417.46 331.72 C 401.16 335.50 384.29 335.18 367.66 335.60 C 375.69 332.95 384.14 331.66 391.96 328.35 C 378.31 320.71 361.33 316.46 352.34 302.62 C 349.78 299.44 349.53 293.96 345.16 292.64 Z"
     id="path6" />
  <path
     fill="#707575"
     stroke="#707575"
     stroke-width="0.09375"
     opacity="1.00"
     d=" M 278.17 413.15 C 282.42 392.83 283.98 372.09 285.75 351.44 C 292.61 351.86 299.50 351.31 306.34 352.14 C 303.82 352.72 301.29 353.30 298.77 353.87 C 296.87 372.38 295.60 390.98 292.47 409.35 C 289.90 424.13 286.71 439.12 279.52 452.43 C 273.40 463.83 263.93 473.11 253.17 480.15 C 248.51 483.45 243.14 485.97 239.37 490.37 C 236.93 493.12 236.93 496.96 236.62 500.41 C 232.30 500.09 227.98 499.92 223.69 499.35 C 223.06 493.68 222.61 487.21 226.63 482.59 C 231.23 477.40 237.54 474.19 243.00 470.02 C 251.08 464.24 258.62 457.48 264.22 449.21 C 271.60 438.46 275.43 425.77 278.17 413.15 Z"
     id="path9" />
  <path
     fill="#414444"
     stroke="#414444"
     stroke-width="0.09375"
     opacity="1.00"
     d=" M 343.99 352.47 C 344.79 352.25 346.39 351.80 347.19 351.58 C 349.46 375.47 350.92 399.64 357.21 422.91 C 360.57 435.35 366.05 447.49 374.96 456.97 C 382.03 464.81 390.87 470.68 399.48 476.65 C 402.87 479.14 406.66 481.64 408.36 485.67 C 410.26 489.97 409.77 494.79 409.26 499.33 C 367.61 502.86 325.75 501.85 283.99 502.00 C 276.85 501.76 269.69 501.79 262.57 501.17 C 278.86 497.86 295.58 497.58 312.11 496.42 C 330.28 495.52 348.49 495.30 366.61 493.56 C 369.21 493.23 373.27 492.41 372.96 488.96 C 372.64 483.97 369.79 479.64 367.67 475.25 C 360.30 461.60 352.07 448.19 347.84 433.13 C 343.54 418.82 342.56 403.80 342.17 388.94 C 342.03 380.31 342.89 371.70 342.98 363.07 C 342.99 359.51 343.25 355.95 343.99 352.47 Z"
     id="path10" />
  <path
     fill="#707575"
     stroke="#707575"
     stroke-width="0.09375"
     opacity="1.00"
     d=" M 190.45 516.49 C 199.04 511.28 209.34 514.01 218.74 514.30 C 212.52 517.17 205.52 519.61 201.44 525.47 C 195.30 534.30 193.40 545.09 189.78 555.02 C 188.55 555.13 187.31 555.22 186.08 555.29 C 183.55 555.04 181.05 554.59 178.53 554.31 C 179.76 545.43 181.03 536.50 183.56 527.87 C 184.98 523.68 187.03 519.39 190.45 516.49 Z"
     id="path11" />
  <path
     fill="#414444"
     stroke="#414444"
     stroke-width="0.09375"
     opacity="1.00"
     d=" M 430.67 513.28 C 435.15 513.68 440.05 514.37 443.58 517.41 C 446.79 520.93 448.86 525.38 450.02 529.98 C 452.06 537.95 453.41 546.10 454.38 554.26 C 424.13 558.99 393.47 559.45 362.95 560.51 C 332.30 560.46 301.64 560.47 270.99 560.51 C 265.65 560.66 260.35 559.87 255.02 560.00 C 252.10 560.00 249.09 560.28 246.30 559.24 C 248.18 558.84 250.04 558.37 251.96 558.18 C 286.64 556.40 321.31 554.26 356.00 552.65 C 379.47 551.11 403.13 551.21 426.41 547.54 C 430.39 546.73 436.26 545.96 436.98 541.01 C 438.12 531.31 433.58 522.27 430.67 513.28 Z"
     id="path13" />
  <path
     fill="#181919"
     stroke="#181919"
     stroke-width="0.09375"
     opacity="1"
     d="m 301.91,116.2 c 20.49,-3.93 41.96,1.02 60.04,10.98 29.99,16.46 50.3,49.46 50.5,83.78 -0.82,16.07 -5.73,31.84 -13.95,45.66 -6.15,12.08 -15.95,21.65 -25.1,31.45 1.51,3.98 4.62,7.34 8.52,9.07 12.06,5.55 24.23,10.85 35.99,17.02 5.03,2.75 10.15,5.55 14.31,9.56 2.76,2.64 4.79,6.37 4.3,10.29 -0.4,5.34 -5.17,8.99 -9.84,10.71 -8.84,3.29 -18.34,4.1 -27.64,5.21 -12.22,0.84 -24.43,2.12 -36.67,2.06 1.6,19.12 3.12,38.31 6.95,57.15 2.53,11.7 5.83,23.69 13.14,33.4 5.66,7.66 13.39,13.42 21.19,18.74 6.42,4.42 13.28,8.91 17.17,15.9 3.67,6.26 4.34,13.75 3.71,20.85 7.98,-0.7 16.16,0.81 23.46,4.08 8.19,3.97 13.24,12.12 16.42,20.34 3.53,14.69 5,29.76 6.91,44.73 -12.1,1.74 -24.2,3.46 -36.36,4.78 -9.64,1 -19.28,2.35 -28.99,2.07 -39.28,2.31 -78.65,1.26 -117.97,1.47 -23.72,0.46 -47.39,-1.05 -71.07,-1.66 -18.49,-1.56 -36.89,-3.98 -55.25,-6.66 1.91,-14.99 3.38,-30.09 6.93,-44.8 3.27,-8.42 8.55,-16.79 17.09,-20.6 7.15,-3 15.04,-4.42 22.78,-3.78 -0.72,-7.54 0.19,-15.54 4.41,-22.01 5.07,-7.98 13.67,-12.49 21.08,-17.95 7.53,-5.34 14.57,-11.68 19.39,-19.65 5.5,-9.11 8.26,-19.55 10.45,-29.87 3.73,-18.64 5.24,-37.62 6.83,-56.53 -2.57,0 -5.13,0.07 -7.69,-0.01 -16.68,-1.32 -33.57,-1.55 -49.97,-5.23 -5.21,-1.3 -10.89,-2.95 -14.36,-7.35 -2.96,-3.67 -2.85,-9.23 -0.11,-12.99 3.53,-4.9 8.96,-7.92 14.08,-10.89 12.72,-6.94 26.08,-12.61 39.21,-18.73 3.57,-1.79 6.38,-4.99 7.8,-8.71 -9.15,-9.81 -18.97,-19.39 -25.12,-31.49 -8.5,-14.36 -13.55,-30.83 -13.96,-47.54 0.85,-22.35 9.71,-44.26 24.58,-60.96 14.63,-16.62 34.98,-28.12 56.81,-31.89 m -53.3,51.34 c -7.65,12.1 -12.24,26.19 -12.83,40.51 0.13,17.74 7.45,34.6 16.92,49.29 4.54,5.47 8.58,11.92 14.97,15.4 l 0.07,0.36 c 4.38,1.6 8.89,2.88 13.53,3.49 15.48,2.12 31.14,2.04 46.73,1.83 11.4,-0.64 23.08,-0.69 34.06,-4.22 6.64,-2 11.01,-7.77 15.04,-13.04 5.58,-5.94 8.92,-13.51 12.38,-20.79 3.1,-6.46 5.32,-13.34 6.56,-20.4 3.17,-15.66 -0.95,-31.95 -7.99,-46 -4.28,-7.83 -9.23,-15.69 -16.25,-21.33 -1.56,-2.51 -4.08,-4.24 -6.32,-6.11 -13.55,-10.78 -30.48,-17.16 -47.76,-18.08 -27.69,0.24 -54.48,15.66 -69.11,39.09 m 25.84,123.38 c -1.38,6.15 -5.14,11.54 -9.96,15.53 -5.11,4.45 -11.68,6.54 -17.68,9.46 -10.61,5.1 -21.68,9.38 -31.6,15.79 10.42,2.44 21.14,3.29 31.82,3.41 19.3,1.16 38.64,1 57.97,0.98 12.83,-0.12 25.67,0.25 38.49,-0.2 7.99,0.53 16.16,0.29 24.17,-0.29 16.63,-0.42 33.5,-0.1 49.8,-3.88 -5.77,-4.31 -12.57,-6.87 -18.92,-10.17 -8.52,-3.86 -17.08,-7.63 -25.49,-11.71 -6.91,-4.18 -12.6,-10.86 -14.51,-18.83 -4.45,0.64 -8.9,1.28 -13.38,1.63 -19.93,1.68 -40.01,1.49 -59.94,-0.15 -3.6,-0.49 -7.19,-0.98 -10.77,-1.57 m 11.3,60.52 c -1.77,20.65 -3.33,41.39 -7.58,61.71 -2.74,12.62 -6.57,25.31 -13.95,36.06 -5.6,8.27 -13.14,15.03 -21.22,20.81 -5.46,4.17 -11.77,7.38 -16.37,12.57 -4.02,4.62 -3.57,11.09 -2.94,16.76 4.29,0.57 8.61,0.74 12.93,1.06 8.64,0.38 17.32,0.88 25.95,0.76 7.12,0.62 14.28,0.59 21.42,0.83 41.76,-0.15 83.62,0.86 125.27,-2.67 0.51,-4.54 1,-9.36 -0.9,-13.66 -1.7,-4.03 -5.49,-6.53 -8.88,-9.02 -8.61,-5.97 -17.45,-11.84 -24.52,-19.68 -8.91,-9.48 -14.39,-21.62 -17.75,-34.06 -6.29,-23.27 -7.75,-47.44 -10.02,-71.33 -10.74,-0.28 -21.48,-0.08 -32.22,-0.14 -9.73,-0.55 -19.48,-0.15 -29.22,0 m -95.3,165.05 c -3.42,2.9 -5.47,7.19 -6.89,11.38 -2.53,8.63 -3.8,17.56 -5.03,26.44 2.52,0.28 5.02,0.73 7.55,0.98 19.94,2.64 40.11,4.23 60.22,3.95 3.79433,0.20883 6.42338,0.30978 9.34338,0.30978 5.33,-0.13 16.30965,0.34832 19.29467,0.7178 30.65,-0.04 57.36195,0.19242 88.01195,0.24242 30.52,-1.06 61.18,-1.52 91.43,-6.25 -0.97,-8.16 -2.32,-16.31 -4.36,-24.28 -1.16,-4.6 -3.23,-9.05 -6.44,-12.57 -3.53,-3.04 -8.43,-3.73 -12.91,-4.13 -16.26,0.82 -32.49,2.22 -48.75,2.9 -14.96,1 -29.96,0.79 -44.93,1.03 -30.34,-0.17 -60.72,0.53 -91.02,-1.29 -9.1,-0.18 -18.15,-1.39 -27.23,-1.62 -9.4,-0.29 -19.7,-3.02 -28.29,2.19 z"
     id="path1"
     sodipodi:nodetypes="ccccccccccccccccccccccccccccccccccccccccccccccccccccccccccccccccccccccccccccccccccccccccccccccccccccccccccccc" />
</svg>

<svg xmlns="http://www.w3.org/2000/svg" viewBox="0 0 640 640"><path fill="#4f5454" stroke="#4f5454" stroke-width=".09" d="M321.05 124.14c22.42-2.1 63.44 18.59 72.61 46.96 3.92 13.3 12.32 35.97 6.49 48.1-.01 23.35-6.95 48.21-29.85 59.04-14.11 5.9-54.14 5.5-69.08 6.07-21.76-.61-56.24-11-63.46-34.18-6.5-25.34-11.21-102.87 17.15-97.64 11.77-19.96 44.9-33.2 66.14-28.35z"/><path fill="#4f5454" stroke="#4f5454" stroke-width=".09" d="M291.45 284.87c19.94 1.64 48.6-3.85 54.68 3.75 19.93-9.37 9.76 1.28 19.95 3.27 15.98 5.79 46.42 30.52 62 37.46-9.53 6.23-10.52 12.25-22.64 11.96-10.28-1.25-41.98-6.13-50.28 1.42-10.62 6.1-8.97-1.12-20.2 3.81-4.78-2.3-4.74 4.82-2.7 1.46 4.95-3.71-104.97-11.37-118.11-12.16-28.82-3.27 4.48-9 1.23-11.9 13.93-7.38 48.24-23.7 52.9-39.98zM205.03 504.11c9.08.23 12.05-7.18 39.76 4.95 5.42-4.45 54.22-.25 84.56-.08 14.97-.24 33.7 1.15 48.65.15 16.26-.68 37.59-2.28 53.85-3.1 10.1 1.37 23.56 2.31 22.42 12.01-.72 4.95 7.34 42.4 3.36 43.2-23.28 3.68-111.86 3.2-135.33 4.73-34.69 1.61-38.8 6.69-68.97-.74-1.92.2-5.35 2.82-7.23 3.22-20.1.28-48.5-3.47-68.44-6.1 1.23-.08-18.7.03-1.6-3.8-14.98 4.96-5.25-23.27.9-32.1 4.07-5.86 21.85-19.47 28.07-22.34z"/><path fill="#4f5454" stroke="#4f5454" stroke-width=".09" d="M282.22 349.09c-10.09-5.36 51.97-4.51 72.21-4.27-5.66 2.35 2.24 17.72 1 23.25-1.24 25.4 2.3 35.62 12.04 59.51 6.17 15.68 28.11 30.13 32.93 46.33 10.17 4.4 13.31 24.53 17.77 31.54-6.08 1.75-40.17.75-46.85.23-21.9 1.1-41.1 1.98-65.32 4.97-13.54.59-27.63-3.85-41.03-2.33-6.78-1.58-46.92-2.33-48.3-10.95 2.46-10.5 13.13-26.03 20.41-32.41 14.6-10.94 24.62-15.68 28.76-33.44 7.1-25.36 9.25-35.33 11.97-61.39 3.65-.46 7.49-11.98.12-11.72-5.22-.23-6.74-11.16 4.3-9.32z"/><path fill="#707575" stroke="#707575" stroke-width=".09" d="M248.61 167.54c14.63-23.43 41.42-38.85 69.11-39.09-16.42 12.06-34 23.17-47.02 39.13-10.14 12.18-16.67 27.49-17.47 43.39-1.06 16.58 3.74 32.82 9.56 48.15 1.62 4.54 4.04 8.83 4.88 13.62-6.39-3.48-10.43-9.93-14.97-15.4-9.47-14.69-16.79-31.55-16.92-49.29a82.72 82.72 0 0 1 12.83-40.51Z"/><path fill="#414444" stroke="#414444" stroke-width=".09" d="M371.8 152.64c7.02 5.64 11.97 13.5 16.25 21.33 7.04 14.05 11.16 30.34 7.99 46a78.69 78.69 0 0 1-6.56 20.4c-3.46 7.28-6.8 14.85-12.38 20.79 5.23-18.96 11.74-38.29 9.75-58.24-1.62-14.72-6.66-28.81-12.43-42.36-1.07-2.57-1.81-5.26-2.62-7.92Z"/><path fill="#707575" stroke="#707575" stroke-width=".09" d="M274.45 290.92c3.58.59 7.17 1.08 10.77 1.57-2.49 7.09-5.81 14.14-11.5 19.24-6.94 6.19-15.17 10.69-23.29 15.12 26.44 2.65 53.04 3.16 79.46 6.09 4.56.73 9.69.01 13.6 2.95-12.82.45-25.66.08-38.49.2-19.33.02-38.67.18-57.97-.98-10.68-.12-21.4-.97-31.82-3.41 9.92-6.41 20.99-10.69 31.6-15.79 6-2.92 12.57-5.01 17.68-9.46 4.82-3.99 8.58-9.38 9.96-15.53Z"/><path fill="#414444" stroke="#414444" stroke-width=".09" d="M345.16 292.64c4.48-.35 8.93-.99 13.38-1.63 1.91 7.97 7.6 14.65 14.51 18.83 8.41 4.08 16.97 7.85 25.49 11.71 6.35 3.3 13.15 5.86 18.92 10.17-16.3 3.78-33.17 3.46-49.8 3.88 8.03-2.65 16.48-3.94 24.3-7.25-13.65-7.64-30.63-11.89-39.62-25.73-2.56-3.18-2.81-8.66-7.18-9.98Z"/><path fill="#707575" stroke="#707575" stroke-width=".09" d="M278.17 413.15c4.25-20.32 5.81-41.06 7.58-61.71 6.86.42 13.75-.13 20.59.7l-7.57 1.73c-1.9 18.51-3.17 37.11-6.3 55.48-2.57 14.78-5.76 29.77-12.95 43.08-6.12 11.4-15.59 20.68-26.35 27.72-4.66 3.3-10.03 5.82-13.8 10.22-2.44 2.75-2.44 6.59-2.75 10.04-4.32-.32-8.64-.49-12.93-1.06-.63-5.67-1.08-12.14 2.94-16.76 4.6-5.19 10.91-8.4 16.37-12.57 8.08-5.78 15.62-12.54 21.22-20.81 7.38-10.75 11.21-23.44 13.95-36.06Z"/><path fill="#414444" stroke="#414444" stroke-width=".09" d="m343.99 352.47 3.2-.89c2.27 23.89 3.73 48.06 10.02 71.33 3.36 12.44 8.84 24.58 17.75 34.06 7.07 7.84 15.91 13.71 24.52 19.68 3.39 2.49 7.18 4.99 8.88 9.02 1.9 4.3 1.41 9.12.9 13.66-41.65 3.53-83.51 2.52-125.27 2.67-7.14-.24-14.3-.21-21.42-.83 16.29-3.31 33.01-3.59 49.54-4.75 18.17-.9 36.38-1.12 54.5-2.86 2.6-.33 6.66-1.15 6.35-4.6-.32-4.99-3.17-9.32-5.29-13.71-7.37-13.65-15.6-27.06-19.83-42.12-4.3-14.31-5.28-29.33-5.67-44.19-.14-8.63.72-17.24.81-25.87a51.6 51.6 0 0 1 1.01-10.6Z"/><path fill="#707575" stroke="#707575" stroke-width=".09" d="M190.45 516.49c8.59-5.21 18.89-2.48 28.29-2.19-6.22 2.87-13.22 5.31-17.3 11.17-6.14 8.83-8.04 19.62-11.66 29.55a115 115 0 0 1-3.7.27c-2.53-.25-5.03-.7-7.55-.98 1.23-8.88 2.5-17.81 5.03-26.44 1.42-4.19 3.47-8.48 6.89-11.38Z"/><path fill="#414444" stroke="#414444" stroke-width=".09" d="M430.67 513.28c4.48.4 9.38 1.09 12.91 4.13 3.21 3.52 5.28 7.97 6.44 12.57a186.86 186.86 0 0 1 4.36 24.28c-30.25 4.73-60.91 5.19-91.43 6.25-30.65-.05-61.31-.04-91.96 0-5.34.15-10.64-.64-15.97-.51-2.92 0-5.93.28-8.72-.76 1.88-.4 3.74-.87 5.66-1.06 34.68-1.78 69.35-3.92 104.04-5.53 23.47-1.54 47.13-1.44 70.41-5.11 3.98-.81 9.85-1.58 10.57-6.53 1.14-9.7-3.4-18.74-6.31-27.73Z"/><path fill="#181919" stroke="#181919" stroke-width=".09" d="M301.91 116.2c20.49-3.93 41.96 1.02 60.04 10.98 29.99 16.46 50.3 49.46 50.5 83.78a99.69 99.69 0 0 1-13.95 45.66c-6.15 12.08-15.95 21.65-25.1 31.45a16.34 16.34 0 0 0 8.52 9.07c12.06 5.55 24.23 10.85 35.99 17.02 5.03 2.75 10.15 5.55 14.31 9.56 2.76 2.64 4.79 6.37 4.3 10.29-.4 5.34-5.17 8.99-9.84 10.71-8.84 3.29-18.34 4.1-27.64 5.21-12.22.84-24.43 2.12-36.67 2.06 1.6 19.12 3.12 38.31 6.95 57.15 2.53 11.7 5.83 23.69 13.14 33.4 5.66 7.66 13.39 13.42 21.19 18.74 6.42 4.42 13.28 8.91 17.17 15.9 3.67 6.26 4.34 13.75 3.71 20.85 7.98-.7 16.16.81 23.46 4.08 8.19 3.97 13.24 12.12 16.42 20.34 3.53 14.69 5 29.76 6.91 44.73a1056.8 1056.8 0 0 1-36.36 4.78c-9.64 1-19.28 2.35-28.99 2.07-39.28 2.31-78.65 1.26-117.97 1.47-23.72.46-47.39-1.05-71.07-1.66-18.49-1.56-36.89-3.98-55.25-6.66 1.91-14.99 3.38-30.09 6.93-44.8 3.27-8.42 8.55-16.79 17.09-20.6a48.9 48.9 0 0 1 22.78-3.78c-.72-7.54.19-15.54 4.41-22.01 5.07-7.98 13.67-12.49 21.08-17.95 7.53-5.34 14.57-11.68 19.39-19.65 5.5-9.11 8.26-19.55 10.45-29.87 3.73-18.64 5.24-37.62 6.83-56.53-2.57 0-5.13.07-7.69-.01-16.68-1.32-33.57-1.55-49.97-5.23-5.21-1.3-10.89-2.95-14.36-7.35-2.96-3.67-2.85-9.23-.11-12.99 3.53-4.9 8.96-7.92 14.08-10.89 12.72-6.94 26.08-12.61 39.21-18.73a16.31 16.31 0 0 0 7.8-8.71c-9.15-9.81-18.97-19.39-25.12-31.49-8.5-14.36-13.55-30.83-13.96-47.54a98.1 98.1 0 0 1 24.58-60.96 98.81 98.81 0 0 1 56.81-31.89m-53.3 51.34a82.72 82.72 0 0 0-12.83 40.51c.13 17.74 7.45 34.6 16.92 49.29 4.54 5.47 8.58 11.92 14.97 15.4l.07.36a63.77 63.77 0 0 0 13.53 3.49c15.48 2.12 31.14 2.04 46.73 1.83 11.4-.64 23.08-.69 34.06-4.22 6.64-2 11.01-7.77 15.04-13.04 5.58-5.94 8.92-13.51 12.38-20.79a78.69 78.69 0 0 0 6.56-20.4c3.17-15.66-.95-31.95-7.99-46-4.28-7.83-9.23-15.69-16.25-21.33-1.56-2.51-4.08-4.24-6.32-6.11a84.44 84.44 0 0 0-47.76-18.08c-27.69.24-54.48 15.66-69.11 39.09m25.84 123.38c-1.38 6.15-5.14 11.54-9.96 15.53-5.11 4.45-11.68 6.54-17.68 9.46-10.61 5.1-21.68 9.38-31.6 15.79 10.42 2.44 21.14 3.29 31.82 3.41 19.3 1.16 38.64 1 57.97.98 12.83-.12 25.67.25 38.49-.2 7.99.53 16.16.29 24.17-.29 16.63-.42 33.5-.1 49.8-3.88-5.77-4.31-12.57-6.87-18.92-10.17-8.52-3.86-17.08-7.63-25.49-11.71-6.91-4.18-12.6-10.86-14.51-18.83-4.45.64-8.9 1.28-13.38 1.63a361.35 361.35 0 0 1-59.94-.15c-3.6-.49-7.19-.98-10.77-1.57m11.3 60.52c-1.77 20.65-3.33 41.39-7.58 61.71-2.74 12.62-6.57 25.31-13.95 36.06-5.6 8.27-13.14 15.03-21.22 20.81-5.46 4.17-11.77 7.38-16.37 12.57-4.02 4.62-3.57 11.09-2.94 16.76 4.29.57 8.61.74 12.93 1.06 8.64.38 17.32.88 25.95.76 7.12.62 14.28.59 21.42.83 41.76-.15 83.62.86 125.27-2.67.51-4.54 1-9.36-.9-13.66-1.7-4.03-5.49-6.53-8.88-9.02-8.61-5.97-17.45-11.84-24.52-19.68-8.91-9.48-14.39-21.62-17.75-34.06-6.29-23.27-7.75-47.44-10.02-71.33-10.74-.28-21.48-.08-32.22-.14-9.73-.55-19.48-.15-29.22 0m-95.3 165.05c-3.42 2.9-5.47 7.19-6.89 11.38-2.53 8.63-3.8 17.56-5.03 26.44 2.52.28 5.02.73 7.55.98 19.94 2.64 40.11 4.23 60.22 3.95 3.8.2 6.42.31 9.34.31 5.33-.13 16.31.35 19.3.72 30.65-.04 57.36.19 88.01.24 30.52-1.06 61.18-1.52 91.43-6.25a186.86 186.86 0 0 0-4.36-24.28c-1.16-4.6-3.23-9.05-6.44-12.57-3.53-3.04-8.43-3.73-12.91-4.13-16.26.82-32.49 2.22-48.75 2.9-14.96 1-29.96.79-44.93 1.03-30.34-.17-60.72.53-91.02-1.29-9.1-.18-18.15-1.39-27.23-1.62-9.4-.29-19.7-3.02-28.29 2.19z"/></svg>
